X:1
T:Title
%%score { ( 1 3 ) | 2 }
L:1/8
Q:1/4=100
M:4/4
K:G
V:1 treble nm="Grand Piano"
V:3 treble 
V:2 bass 
V:1
 G2 B2 G2 B2 | [DG]3 A B2 G2 | [FA]3 [FA] [FA][DFA][DG][DFA] | B6 z2 | G2 B2 G2 B2 | %5
w: C.~D.~Amstutz * * *|||||
 [DG]3 A B2 G2 | [FA]3 [FA] [FA][DG][GB][FA] | G6 z2 | d3 d [Fd]2 [Fc]2 | [GB]3 [EB] [^DB]2 [DA]2 | %10
w: |||||
 [EG]3 [DEG] [B,DG][DB][DA][^CEG] | A6 z2 | [B,Gd]3 [B,Gd] [Fd]2 [Fc]2 | [GB]3 [EB] [^DB]2 [DA]2 | %14
w: ||||
 [EG]3 [Ec] [EB][EA][DG][CF] | [B,G]6 z2 |] %16
w: ||
V:2
 [G,B,D]2 [G,D]2 [G,B,D]2 [G,D]2 | [B,,G,]3 [D,F,D] [G,D]2 [G,B,D]2 | [D,D]3 [D,D] [D,D]C,B,,D, | %3
 [G,DG]6 z2 | [G,B,D]2 [G,D]2 [G,B,D]2 [G,D]2 | [B,,G,]3 [D,F,D] [G,D]2 [G,B,D]2 | %6
 [D,D]3 [D,D] [D,C][D,B,][D,D][D,C] | [G,B,]6 z2 | [G,B,G]3 [G,B,G][K:bass] [D,A,]2 [D,A,]2 | %9
 [E,G,]3 [E,G,] [B,,F,]2 [B,,F,]2 | [C,E,]3 C, G,G,F,E, | D,2 A,,A,, D,2 z2 | %12
 G,,3 G,, [D,A,]2 [D,A,]2 | [E,G,]3 [E,G,] [B,,F,]2 [B,,F,]2 | %14
 [C,E,]3 [A,,A,] [B,,^G,][C,A,][D,B,][D,A,] | [G,,G,]6 z2 |] %16
V:3
 x8 | x8 | x8 | x8 | x8 | x8 | x8 | x8 | x8 | x8 | x8 | [DF]2 [^CE][CE] [DF]2 z2 | x8 | x8 | x8 | %15
 x8 |] %16

